X: 1
T: God Bless America   [G]
C: Irving Berlin
N: Original version written in 1918 for the revue "Yip, Yip, Yaphank".  It was
N: recorded in 1938 by Kate Smith, with slightly different words. This version
N: was a huge hit.  Berlin then created  the  God  Bless  America  Fund,  with
N: royalties going to the Boy and Girl Scouts of America.
M: C|
L: 1/8
K: G
%%continueall 1
"Verse:"\
[| "G"z2 Bc "E7/G#"d2 e2 | "Am"c2 c6 |
w: While the storm clouds gath-er
  "D7"z2 AB c2 d2 | "G"B8 |
w: far a-cross the sea,
  "Em"z2 GA B2 c2 | "Am"A2 A6 |
w: Let us swear al-le-giance
  "D7" z2 AG F2 A2 | "G"G8 ||
w: to a land that's free,
  "G"z2 Bc "E7/G#"d2 e2 | "Am"c2 c6 |
w: Let us all be grate-ful
  "F7"z2 ^cd e2 c2 | "Bm"d8 |
w: for a land so fair,
  "G/B"z2 dd "Edim"d2 d2 | "D/A"d2 A2-"F#m"A4 |
w: As we raise our voi-ces
  "Em7"z2 GF "A7"E2 F2 | "D7"A8- | A8 |]
"^Chorus:"|:
w: in a sol-emn prayer.
  "G"G8 | F4 "A#dim"E4 |
w: God Bless A-
  "D7/A"F3E "D7"D2- | D8 |
w: me-ri-ca,
  "D7"[A8F8] | [G4E4] [A4F4] |
w: Land that I
  "G"[B8-G8-] | "G7"[B4G4] [A2F2] [B2G2] ||
w: love. ~ Stand be-
  "C"[c4G4] [G4-E4-] | [G4E4] [c4G4] |
w: side her ~ and
  "G"[B4G4] [G4-D4-] | [G4D4] [G2D2] [A2D2] |
w: guide her ~ Thru the
  "A7"[B4G4] [A2D2] [G2D2] | "D7"[A4D4] [G2D2] [F2D2] |
w: night with a light from a-
  "G"[G8-D8-] | [G4D4] [F3D3] [GE] ||
w: bove. ~ From the
  "D7"[A4F4] [A4-D4-] | [A4D4] [B3G3] [cA] |
w: moun-tains ~ to the
  "G"[d4B4] [B4-D4-] | [B4D4] [A3F3] [BG] |
w: prai-ries, ~ To the
  "D7"[c4A4] [A4-F4-] | [A4F4] [B3G3] [cA] |
w: o-ceans ~ white with
  "G"[d4-G4-] [d4-A4-] | [d4-B4-] "G7"[d4B4] ||
w: foam,***
  "C"[e8c8] | "G/B"[d4B4] "D7/F"[c4A4] |
w: God Bless A-
  "G"[d2B2] [c2A2] "Em"[d4-B4G4-] | [d4B4G4] "Am7"[c4A4] |
w: me-ri-ca ~ My
  "G"[B8G8] | "D7"[A8F8] |
w: home sweet
  "G"[d4-G4] [d4-A4] | [d4-B4-] "G7"[d4B4] ||
w: home.*** 
  "C"[e8c8] | "G/B"[d4B4] "D7/F"[c4A4] |
w: God Bless A-
  "G"[B2G2] "B7/D#"[A2F2] "Em"[G4-E4-] | [G4E4] "Am7"[e4c4] | "G/D"[d8B8] |
w: me-ri-ca ~ My home
[1 "D7"[c8A8] | "G"[B4-G4-] "Em"[B4-G4-] | "Am7"[B4G4] "D7"z4 :|
w: sweet home.**
[2 "D7"[f8c8A8] | "G"[g8-B8-G8-] | [g6B6G6] z2 |]
w: sweet home.*
%y8 y8 y8 y8 y8 y8 y8 y8 
